X: 3
T: The Heather Breeze
R: reel
M: 4/4
L: 1/8
K: Gmaj
|:DGBG dBGB|FGAB cBAF|DGBG dBGB|1 BdcA BGAF:|2 BdcA BGG2||
|dggf gbag|fd3 fagf|dggf gbag|fdcA BGG2|
dggf gbag|fd3 fagf|g3a bgag|fdcA BGAF||


Tune 411	Setting 13262

